groups/amino_sidechains/pyrrolysine.svg

<svg height="256" viewBox="0 0 256 256" width="256" xmlns="http://www.w3.org/2000/svg"><path d="m0 0h256v256h-256z" fill="#fff"/><g stroke="#000"><path d="m210.4 228.4-28.8-14.6" fill="none" stroke-width="2"/><path d="m181.6 213.8-1.9-32.2" fill="none" stroke-width="2"/><path d="m179.7 181.6-28.8-14.6" fill="none" stroke-width="2"/><path d="m150.9 167-1.8-32.2" fill="none" stroke-width="2"/><path d="m149.1 134.8-22-11.1" fill="none" stroke-width="2"/><path d="m119.8 113.4-1.4-25.4" fill="none" stroke-width="2"/><path d="m118.6 90.8 21.3-14" fill="none" stroke-width="2"/><path d="m115.9 86.7 21.3-13.9" fill="none" stroke-width="2"/><path d="m92.7 75.3.2-.5" fill="none"/><path d="m95.7 77.2.6-1.1" fill="none"/><path d="m98.8 79.1.8-1.6" fill="none"/><path d="m101.9 81 1-2.2" fill="none"/><path d="m104.9 82.9 1.4-2.7" fill="none"/><path d="m108 84.7 1.6-3.2" fill="none"/><path d="m111 86.6 2-3.8" fill="none"/><path d="m114.1 88.5 2.2-4.3" fill="none"/><path d="m89.6 73.4-5.2-31.8" fill="none" stroke-width="2"/><path d="m84.4 41.6 13.1-16.7 3.4 3.4z" fill-rule="evenodd" stroke-miterlimit="10" stroke-width=".5"/><path d="m84.4 41.6-31.9-5" fill="none" stroke-width="2"/><path d="m52.5 36.6-14.6 28.9" fill="none" stroke-width="2"/><path d="m37.9 65.5 16.1 15.9" fill="none" stroke-width="2"/><path d="m43.8 64.5 13.6 13.4" fill="none" stroke-width="2"/><path d="m67.7 84.7 21.9-11.3" fill="none" stroke-width="2"/><path d="m183 214.6-1.4-.8-.1-1.6" fill="none" stroke-miterlimit="10" stroke-width="2"/><path d="m179.8 183.2-.1-1.6-1.4-.7" fill="none" stroke-miterlimit="10" stroke-width="2"/><path d="m152.3 167.8-1.4-.8-.1-1.6" fill="none" stroke-miterlimit="10" stroke-width="2"/><path d="m149.2 136.4-.1-1.6-1.1-.6" fill="none" stroke-miterlimit="10" stroke-width="2"/><path d="m89.3 71.8.3 1.6-1.1.6" fill="none" stroke-miterlimit="10" stroke-width="2"/><path d="m84.6 43.2-.2-1.6-1.6-.3" fill="none" stroke-miterlimit="10" stroke-width="2"/><path d="m54.1 36.9-1.6-.3-.7 1.5" fill="none" stroke-miterlimit="10" stroke-width="2"/><path d="m38.7 64-.8 1.5.8.8" fill="none" stroke-miterlimit="10" stroke-width="2"/></g><path d="m217.677 213.961c-1.082-.545-1.809.897-.728 1.442 1.082.546.354 1.988-.727 1.442-1.082-.545-1.809.897-.728 1.442 1.082.546.354 1.988-.727 1.442-1.082-.546-1.809.896-.728 1.442 1.082.546.354 1.988-.727 1.442-1.082-.546-1.809.896-.727 1.442 1.081.545.354 1.987-.728 1.442-1.081-.546-1.809.896-.727 1.442 1.081.545.354 1.987-.728 1.442-1.081-.546-1.809.896-.727 1.442 1.081.545.354 1.987-.728 1.442-1.081-.546-1.809.896-.727 1.441 1.081.546.354 1.988-.727 1.442-1.082-.545-1.809.897-.728 1.442 1.082.546.354 1.988-.727 1.442-1.082-.545-1.809.897-.728 1.442 1.082.546.354 1.988-.727 1.442-1.082-.545-1.809.896-.728 1.442 1.082.546.354 1.988-.727 1.442" fill="none" stroke="#7f7f7f" stroke-width="2"/><text font-family="sans-serif" font-size="19" x="101.1" y="129.9">H</text><text font-family="sans-serif" font-size="19" x="114.4" y="129.9">N</text><text font-family="sans-serif" font-size="19" x="139.6" y="80">O</text><text font-family="sans-serif" font-size="19" x="101.3" y="28.3">C</text><text font-family="sans-serif" font-size="19" x="114.7" y="28.3">H</text><text font-family="sans-serif" font-size="12" x="128.1" y="36.1">3</text><text font-family="sans-serif" font-size="19" x="55.1" y="97.9">N</text><text font-family="sans-serif" font-size="9" x="94.5" y="68.7">(</text><text font-family="sans-serif" font-size="9" x="97.6" y="68.7">R</text><text font-family="sans-serif" font-size="9" x="104.3" y="68.7">)</text><text font-family="sans-serif" font-size="9" x="70.3" y="51.8">(</text><text font-family="sans-serif" font-size="9" x="73.4" y="51.8">R</text><text font-family="sans-serif" font-size="9" x="80.1" y="51.8">)</text></svg>

<?xml version='1.0' encoding='iso-8859-1'?>
<svg version='1.1' baseProfile='full'
              xmlns='http://www.w3.org/2000/svg'
                      xmlns:rdkit='http://www.rdkit.org/xml'
                      xmlns:xlink='http://www.w3.org/1999/xlink'
                  xml:space='preserve'
width='256px' height='256px' viewBox='0 0 256 256'>
<!-- END OF HEADER -->
<rect style='opacity:1.0;fill:#FFFFFF;stroke:none' width='256.0' height='256.0' x='0.0' y='0.0'> </rect>
<path class='bond-0 atom-0 atom-1' d='M 210.4,228.4 L 181.6,213.8' style='fill:none;fill-rule:evenodd;stroke:#000000;stroke-width:2.0px;stroke-linecap:butt;stroke-linejoin:miter;stroke-opacity:1' />
<path class='bond-1 atom-1 atom-2' d='M 181.6,213.8 L 179.7,181.6' style='fill:none;fill-rule:evenodd;stroke:#000000;stroke-width:2.0px;stroke-linecap:butt;stroke-linejoin:miter;stroke-opacity:1' />
<path class='bond-2 atom-2 atom-3' d='M 179.7,181.6 L 150.9,167.0' style='fill:none;fill-rule:evenodd;stroke:#000000;stroke-width:2.0px;stroke-linecap:butt;stroke-linejoin:miter;stroke-opacity:1' />
<path class='bond-3 atom-3 atom-4' d='M 150.9,167.0 L 149.1,134.8' style='fill:none;fill-rule:evenodd;stroke:#000000;stroke-width:2.0px;stroke-linecap:butt;stroke-linejoin:miter;stroke-opacity:1' />
<path class='bond-4 atom-4 atom-5' d='M 149.1,134.8 L 127.1,123.7' style='fill:none;fill-rule:evenodd;stroke:#000000;stroke-width:2.0px;stroke-linecap:butt;stroke-linejoin:miter;stroke-opacity:1' />
<path class='bond-5 atom-5 atom-6' d='M 119.8,113.4 L 118.4,88.0' style='fill:none;fill-rule:evenodd;stroke:#000000;stroke-width:2.0px;stroke-linecap:butt;stroke-linejoin:miter;stroke-opacity:1' />
<path class='bond-6 atom-6 atom-7' d='M 118.6,90.8 L 139.9,76.8' style='fill:none;fill-rule:evenodd;stroke:#000000;stroke-width:2.0px;stroke-linecap:butt;stroke-linejoin:miter;stroke-opacity:1' />
<path class='bond-6 atom-6 atom-7' d='M 115.9,86.7 L 137.2,72.8' style='fill:none;fill-rule:evenodd;stroke:#000000;stroke-width:2.0px;stroke-linecap:butt;stroke-linejoin:miter;stroke-opacity:1' />
<path class='bond-7 atom-8 atom-6' d='M 92.7,75.3 L 92.9,74.8' style='fill:none;fill-rule:evenodd;stroke:#000000;stroke-width:1.0px;stroke-linecap:butt;stroke-linejoin:miter;stroke-opacity:1' />
<path class='bond-7 atom-8 atom-6' d='M 95.7,77.2 L 96.3,76.1' style='fill:none;fill-rule:evenodd;stroke:#000000;stroke-width:1.0px;stroke-linecap:butt;stroke-linejoin:miter;stroke-opacity:1' />
<path class='bond-7 atom-8 atom-6' d='M 98.8,79.1 L 99.6,77.5' style='fill:none;fill-rule:evenodd;stroke:#000000;stroke-width:1.0px;stroke-linecap:butt;stroke-linejoin:miter;stroke-opacity:1' />
<path class='bond-7 atom-8 atom-6' d='M 101.9,81.0 L 102.9,78.8' style='fill:none;fill-rule:evenodd;stroke:#000000;stroke-width:1.0px;stroke-linecap:butt;stroke-linejoin:miter;stroke-opacity:1' />
<path class='bond-7 atom-8 atom-6' d='M 104.9,82.9 L 106.3,80.2' style='fill:none;fill-rule:evenodd;stroke:#000000;stroke-width:1.0px;stroke-linecap:butt;stroke-linejoin:miter;stroke-opacity:1' />
<path class='bond-7 atom-8 atom-6' d='M 108.0,84.7 L 109.6,81.5' style='fill:none;fill-rule:evenodd;stroke:#000000;stroke-width:1.0px;stroke-linecap:butt;stroke-linejoin:miter;stroke-opacity:1' />
<path class='bond-7 atom-8 atom-6' d='M 111.0,86.6 L 113.0,82.8' style='fill:none;fill-rule:evenodd;stroke:#000000;stroke-width:1.0px;stroke-linecap:butt;stroke-linejoin:miter;stroke-opacity:1' />
<path class='bond-7 atom-8 atom-6' d='M 114.1,88.5 L 116.3,84.2' style='fill:none;fill-rule:evenodd;stroke:#000000;stroke-width:1.0px;stroke-linecap:butt;stroke-linejoin:miter;stroke-opacity:1' />
<path class='bond-8 atom-8 atom-9' d='M 89.6,73.4 L 84.4,41.6' style='fill:none;fill-rule:evenodd;stroke:#000000;stroke-width:2.0px;stroke-linecap:butt;stroke-linejoin:miter;stroke-opacity:1' />
<path class='bond-9 atom-9 atom-10' d='M 84.4,41.6 L 97.5,24.9 L 100.9,28.3 Z' style='fill:#000000;fill-rule:evenodd;fill-opacity:1;stroke:#000000;stroke-width:0.5px;stroke-linecap:butt;stroke-linejoin:miter;stroke-miterlimit:10;stroke-opacity:1;' />
<path class='bond-10 atom-9 atom-11' d='M 84.4,41.6 L 52.5,36.6' style='fill:none;fill-rule:evenodd;stroke:#000000;stroke-width:2.0px;stroke-linecap:butt;stroke-linejoin:miter;stroke-opacity:1' />
<path class='bond-11 atom-11 atom-12' d='M 52.5,36.6 L 37.9,65.5' style='fill:none;fill-rule:evenodd;stroke:#000000;stroke-width:2.0px;stroke-linecap:butt;stroke-linejoin:miter;stroke-opacity:1' />
<path class='bond-12 atom-12 atom-13' d='M 37.9,65.5 L 54.0,81.4' style='fill:none;fill-rule:evenodd;stroke:#000000;stroke-width:2.0px;stroke-linecap:butt;stroke-linejoin:miter;stroke-opacity:1' />
<path class='bond-12 atom-12 atom-13' d='M 43.8,64.5 L 57.4,77.9' style='fill:none;fill-rule:evenodd;stroke:#000000;stroke-width:2.0px;stroke-linecap:butt;stroke-linejoin:miter;stroke-opacity:1' />
<path class='bond-13 atom-13 atom-8' d='M 67.7,84.7 L 89.6,73.4' style='fill:none;fill-rule:evenodd;stroke:#000000;stroke-width:2.0px;stroke-linecap:butt;stroke-linejoin:miter;stroke-opacity:1' />
<path d='M 183.0,214.6 L 181.6,213.8 L 181.5,212.2' style='fill:none;stroke:#000000;stroke-width:2.0px;stroke-linecap:butt;stroke-linejoin:miter;stroke-miterlimit:10;stroke-opacity:1;' />
<path d='M 179.8,183.2 L 179.7,181.6 L 178.3,180.9' style='fill:none;stroke:#000000;stroke-width:2.0px;stroke-linecap:butt;stroke-linejoin:miter;stroke-miterlimit:10;stroke-opacity:1;' />
<path d='M 152.3,167.8 L 150.9,167.0 L 150.8,165.4' style='fill:none;stroke:#000000;stroke-width:2.0px;stroke-linecap:butt;stroke-linejoin:miter;stroke-miterlimit:10;stroke-opacity:1;' />
<path d='M 149.2,136.4 L 149.1,134.8 L 148.0,134.2' style='fill:none;stroke:#000000;stroke-width:2.0px;stroke-linecap:butt;stroke-linejoin:miter;stroke-miterlimit:10;stroke-opacity:1;' />
<path d='M 89.3,71.8 L 89.6,73.4 L 88.5,74.0' style='fill:none;stroke:#000000;stroke-width:2.0px;stroke-linecap:butt;stroke-linejoin:miter;stroke-miterlimit:10;stroke-opacity:1;' />
<path d='M 84.6,43.2 L 84.4,41.6 L 82.8,41.3' style='fill:none;stroke:#000000;stroke-width:2.0px;stroke-linecap:butt;stroke-linejoin:miter;stroke-miterlimit:10;stroke-opacity:1;' />
<path d='M 54.1,36.9 L 52.5,36.6 L 51.8,38.1' style='fill:none;stroke:#000000;stroke-width:2.0px;stroke-linecap:butt;stroke-linejoin:miter;stroke-miterlimit:10;stroke-opacity:1;' />
<path d='M 38.7,64.0 L 37.9,65.5 L 38.7,66.3' style='fill:none;stroke:#000000;stroke-width:2.0px;stroke-linecap:butt;stroke-linejoin:miter;stroke-miterlimit:10;stroke-opacity:1;' />
<path class='atom-1' d='M217.677,213.961 C216.595,213.416 215.868,214.858 216.949,215.403 C218.031,215.949 217.303,217.391 216.222,216.845 C215.14,216.3 214.413,217.742 215.494,218.287 C216.576,218.833 215.848,220.275 214.767,219.729 C213.685,219.183 212.958,220.625 214.039,221.171 C215.121,221.717 214.393,223.159 213.312,222.613 C212.23,222.067 211.503,223.509 212.585,224.055 C213.666,224.6 212.939,226.042 211.857,225.497 C210.776,224.951 210.048,226.393 211.13,226.939 C212.211,227.484 211.484,228.926 210.402,228.381 C209.321,227.835 208.593,229.277 209.675,229.823 C210.756,230.368 210.029,231.81 208.947,231.265 C207.866,230.719 207.138,232.161 208.22,232.706 C209.301,233.252 208.574,234.694 207.493,234.148 C206.411,233.603 205.684,235.045 206.765,235.59 C207.847,236.136 207.119,237.578 206.038,237.032 C204.956,236.487 204.229,237.929 205.31,238.474 C206.392,239.02 205.664,240.462 204.583,239.916 C203.501,239.371 202.774,240.812 203.855,241.358 C204.937,241.904 204.209,243.346 203.128,242.8' style='fill:none;stroke:#7F7F7F;stroke-width:2.0px;stroke-linecap:butt;stroke-linejoin:miter;stroke-opacity:1' />
<text x='101.1' y='129.9' class='atom-5' style='font-size:19px;font-style:normal;font-weight:normal;fill-opacity:1;stroke:none;font-family:sans-serif;text-anchor:start;fill:#000000' >H</text>
<text x='114.4' y='129.9' class='atom-5' style='font-size:19px;font-style:normal;font-weight:normal;fill-opacity:1;stroke:none;font-family:sans-serif;text-anchor:start;fill:#000000' >N</text>
<text x='139.6' y='80.0' class='atom-7' style='font-size:19px;font-style:normal;font-weight:normal;fill-opacity:1;stroke:none;font-family:sans-serif;text-anchor:start;fill:#000000' >O</text>
<text x='101.3' y='28.3' class='atom-10' style='font-size:19px;font-style:normal;font-weight:normal;fill-opacity:1;stroke:none;font-family:sans-serif;text-anchor:start;fill:#000000' >C</text>
<text x='114.7' y='28.3' class='atom-10' style='font-size:19px;font-style:normal;font-weight:normal;fill-opacity:1;stroke:none;font-family:sans-serif;text-anchor:start;fill:#000000' >H</text>
<text x='128.1' y='36.1' class='atom-10' style='font-size:12px;font-style:normal;font-weight:normal;fill-opacity:1;stroke:none;font-family:sans-serif;text-anchor:start;fill:#000000' >3</text>
<text x='55.1' y='97.9' class='atom-13' style='font-size:19px;font-style:normal;font-weight:normal;fill-opacity:1;stroke:none;font-family:sans-serif;text-anchor:start;fill:#000000' >N</text>
<text x='94.5' y='68.7' class='note' style='font-size:9px;font-style:normal;font-weight:normal;fill-opacity:1;stroke:none;font-family:sans-serif;text-anchor:start;fill:#000000' >(</text>
<text x='97.6' y='68.7' class='note' style='font-size:9px;font-style:normal;font-weight:normal;fill-opacity:1;stroke:none;font-family:sans-serif;text-anchor:start;fill:#000000' >R</text>
<text x='104.3' y='68.7' class='note' style='font-size:9px;font-style:normal;font-weight:normal;fill-opacity:1;stroke:none;font-family:sans-serif;text-anchor:start;fill:#000000' >)</text>
<text x='70.3' y='51.8' class='note' style='font-size:9px;font-style:normal;font-weight:normal;fill-opacity:1;stroke:none;font-family:sans-serif;text-anchor:start;fill:#000000' >(</text>
<text x='73.4' y='51.8' class='note' style='font-size:9px;font-style:normal;font-weight:normal;fill-opacity:1;stroke:none;font-family:sans-serif;text-anchor:start;fill:#000000' >R</text>
<text x='80.1' y='51.8' class='note' style='font-size:9px;font-style:normal;font-weight:normal;fill-opacity:1;stroke:none;font-family:sans-serif;text-anchor:start;fill:#000000' >)</text>
</svg>
